!!!!SEGMENT: pl-kozmzk--mzk-m-159--029_walczynski-franciszek--praeludia-organi-op-5-moderato.krn
!!!cenid: 18xx:2772
!!!COM: Walczyński, Franciszek
!!!COM-rismid: pe30021989
!!!CDT: ~1852-1937
!!!CNT: Polish
!!!GTL: Praeludia organi op. 5
!!!OTL: 29. Moderato
!!!PDT: 1894
!!!AGN: Secular; Prelude
!!!SMS-siglum: PL-KOZmzk
!!!SMS-shelfmark: mzk/m/159
!!!SMS-shelfwork: 029 G
!!!SMS-variant:
!!!SMS-altvar:
!!!NIFC-rismid: 1001118830
!!!URL-scan: https://repozytorium.nifc.pl/islandora/object/pl-kozmzk%3A2265/datastream/PDF/view
!!!ONB-nifc: UWAGA: numeracja plików zgodna z numeracją źrodłową
!!!OMD: 29.Moderato.
!!!AIN: 1 empty 1 organ
!!!key:
**kern	**kern	**dynam
*part2	*part1	*part1
*staff2	*staff1	*
*Iempty	*Iorgan	*
*	*I"[Organi]	*
*clefF4	*clefG2	*
*k[b-]	*k[b-]	*
*B-:	*B-:	*
*M4/4	*M4/4	*
*met(c)	*met(c)	*
=1	=1	=1
*^	*^	*
1r	(2F\	1rg	1r	p
.	4G\	.	.	.
.	4B-\	.	.	.
=2	=2	=2	=2	=2
1r	4A\	1rg	1r	.
.	4G\	.	.	.
.	4F\	.	.	.
.	8E\L	.	.	.
.	8D\J)	.	.	.
=3	=3	=3	=3	=3
(2c/	4E\	1rg	1r	.
.	4C\	.	.	.
4d/	8F\L	.	.	.
.	8G\	.	.	.
4f/	8A\	.	.	.
.	8Bn\J	.	.	.
=4	=4	=4	=4	=4
4e/	8c\	1rg	1r	.
.	4G\	.	.	.
4d/	.	.	.	.
.	8F\	.	.	.
4c/	4E\	.	.	.
4B-X/)	8D\L	.	.	.
.	8E\J	.	.	.
=5	=5	=5	=5	=5
(2A/	[1F\	1ree	(2f\	p
4B-/	.	.	4g\	.
4d/)	.	.	4b-\)	.
=6	=6	=6	=6	=6
(4c/	(2.F\]	1ree	(4a\	.
4B-/	.	.	4g\	.
2A/)	.	.	2f\)	.
.	4E-X\)	.	.	.
=7	=7	=7	=7	=7
(2.B-/	(2D\	4r	2f\	.
!	!	!	!	!LO:DY:a
.	.	(4b-/	.	p
.	4E-X\	4cc/	2g\	.
4c/	4C\	4ee-X/	.	.
=8	=8	=8	=8	=8
4A/)	4D\	4dd/	4f#X\	.
2.d/	4F#X\	4cc/	4a\	.
.	4G\	4b-/	[2g\	.
.	4Fn\)	4bn/)	.	.
=9	=9	=9	=9	=9
*	*	*	*	*^
!	!	!	!	!LO:DY:b=2	!LO:DY:a
(2.c/	(2En\	(2cc/	2g\]	f	f
.	4F\	4dd/	2a\	.	.
4d/	4D\	4ff/	.	.	.
*	*	*	*	*v	*v
!!LO:LB:g=original
=10	=10	=10	=10	=10
4c/	4.G\	4ee/	4cc\	.
4Bn/	.	4dd/	4f\	.
.	8G#X\	.	.	.
2c/)	4A\	(4cc/	2e\	.
.	4Gn\)	4b-X/))	.	.
=11	=11	=11	=11	=11
2c/	(4F\	(2a/	[1f\	p
.	4E-X\	.	.	.
4B-/	4D\	4b-/	.	.
4c/	4C\	4a/	.	.
=12	=12	=12	=12	=12
4d/	2BB-\	1g/	2.f\]	>
4d-X/	.	.	.	.
4c/	2C\)	.	.	.
[4B-/	.	.	4en\	.
=13	=13	=13	=13	=13
!LO:TX:b:i:t=Ped.	!	!	!	!
4B-/]	(1F\	4f/)	(2f\	] f
(4A/	.	[2.ff^/	.	.
4B-/	.	.	4g\	.
4d/	.	.	4b-\	.
=14	=14	=14	=14	=14
4c/	2.F\	1ff/_	4a\	.
4B-/	.	.	4g\	.
2A/)	.	.	2f\)	.
.	4E-X\)	.	.	.
=15	=15	=15	=15	=15
(1B-/	(2D\	(2ff/]	4f\	.
.	.	.	2b-\	<
.	2D-X\	4gg/	.	.
.	.	4bb-/	4een\	[
=16	=16	=16	=16	=16
4c/	1C\)	4aa/	4ff\	>
4B-/	.	4gg/	4ee\	.
4A/	.	4ff/	2cc\	]
4G/)	.	4ee/	.	.
=17	=17	=17	=17	=17
(4A/	[1F\ [1FF\	[1ff/)	2cc\	p <
4e-X/	.	.	.	.
4d/	.	.	4bn\	.
4d-X/	.	.	4b-X\	[[
=18	=18	=18	=18	=18
4c/	1F\_ 1FF\_	1ff/_	4a\	>
4dn/	.	.	4b-\	.
4c/	.	.	4a\	.
4B-/	.	.	4g\	.
=19	=19	=19	=19	=19
1c/)	1F\] 1FF\;]	1ff/;]	1a\	] pp
*v	*v	*	*	*
*	*v	*v	*
==	==	==
*-	*-	*-
!!!system-decoration: {(s1,s2)}
!!!EED: Andrzej Borzym
!!!EST: 2021-08-08
!!!ENC: Katarzyna Serwa
!!!END: 2021-07-26
